source/images/icon-speed.svg

<svg viewBox="0 0 50 56" fill="none" xmlns="http://www.w3.org/2000/svg"><path d="M23 4h8v3h-3v3.02c3.81.16 7.38 1.25 10.5 3.05 1.85-1.93 6.25.17 4.76 3.66l-.1-.1a23 23 0 1 1-32.43.1c-2.03-3.03 2.58-6.15 4.76-3.66a22.88 22.88 0 0 1 10.51-3.05v-3.02h-3v-3Z" fill="#F0EBFF" fill-rule="evenodd"/><path d="M26 1h-6v1h6v-1Zm-2 2h3v-3h-8v3h3v3.02a22.69 22.69 0 0 0-9.61 2.56l-.14-.16c-1.54-1.77-3.86-1.44-5.3-.4a4.1 4.1 0 0 0-1.6 2.25c-.26.97-.11 2.03.55 3.02l.12.18a23 23 0 1 0 33.99.05l.17-.4c.46-1.08.49-2.12.17-3.04-.32-.9-.95-1.6-1.69-2.06-1.41-.88-3.53-1.05-4.89.37l-.18.19a22.68 22.68 0 0 0-9.59-2.56v-3.02Zm-1 4c-3.86 0-7.49.99-10.64 2.73l-.36.21a21.99 21.99 0 0 0 11 41.06 22 22 0 0 0 15.55-37.56l-.38-.37a22.4 22.4 0 0 0-4.17-3.13l-.37-.21a21.94 21.94 0 0 0-10.63-2.73Zm-11.51 2.07a23.7 23.7 0 0 0-4.12 3.04l-.64.62a2.76 2.76 0 0 1-.43-.97c-.55-2.32 2.31-4.32 4.34-3.34.31.15.6.36.85.65Zm23.01 0a23.1 23.1 0 0 1 4.31 3.23l.45.43c.16-.39.26-.76.29-1.11.21-2.34-2.31-3.74-4.1-3.14a2.3 2.3 0 0 0-.95.59Zm-11.5 21.93a2 2 0 0 0 .86-3.81l-.91-.19a2 2 0 0 0 .05 4Zm-.64-4.94-1.35-4.93-.04-.15.05-.14 1.5-4.5.48-1.43.47 1.43 1.5 4.5.05.14-.04.15-1.35 4.93.38.11 7.55-13.42.87.49-7.55 13.42a3 3 0 1 1-2.52-.6Zm-.34-5.05.98 3.58.97-3.58-.97-2.93-.98 2.93Z" fill="#7859CF" fill-rule="evenodd"/></svg>

<svg width="50.000000" height="56.000000" viewBox="0 0 50 56" fill="none" xmlns="http://www.w3.org/2000/svg" xmlns:xlink="http://www.w3.org/1999/xlink">
	<desc>
			Created with Pixso.
	</desc>
	<defs/>
	<path id="Union" d="M23 4L31 4L31 7L28 7L28 10.02C31.81 10.18 35.38 11.27 38.5 13.07C40.35 11.14 44.75 13.24 43.26 16.73C43.23 16.7 43.19 16.67 43.16 16.63C47.38 20.8 50 26.59 50 33C50 45.7 39.7 56 27 56C14.29 56 4 45.7 4 33C4 26.32 6.83 20.32 11.37 16.12C11.15 16.32 10.94 16.52 10.73 16.73C8.7 13.7 13.31 10.58 15.49 13.07C18.61 11.27 22.18 10.18 26 10.02L26 7L23 7L23 4Z" fill="#F0EBFF" fill-opacity="1.000000" fill-rule="evenodd"/>
	<path id="Union" d="M26 1L20 1L20 2L22 2L24 2L26 2L26 1ZM24 3L26 3L27 3L27 2L27 1L27 0L26 0L20 0L19 0L19 1L19 2L19 3L20 3L22 3L22 6.02C18.54 6.16 15.28 7.07 12.39 8.58L12.25 8.42C10.71 6.65 8.39 6.98 6.95 8.02C6.21 8.55 5.6 9.33 5.35 10.27C5.09 11.24 5.24 12.3 5.9 13.29L6.02 13.47C2.28 17.56 0 23.01 0 29C0 41.7 10.29 52 23 52C35.7 52 46 41.7 46 29C46 23.04 43.73 17.6 40.01 13.52L40.18 13.12C40.64 12.04 40.67 11 40.35 10.08C40.03 9.18 39.4 8.48 38.66 8.02C37.25 7.14 35.13 6.97 33.77 8.39L33.59 8.58C30.7 7.07 27.44 6.16 24 6.02L24 3ZM23 7C19.14 7 15.51 7.99 12.36 9.73L12 9.94C10.58 10.76 9.26 11.73 8.06 12.84C3.72 16.86 1 22.61 1 29C1 41.15 10.84 51 23 51C35.15 51 45 41.15 45 29C45 22.92 42.53 17.42 38.55 13.44C38.43 13.31 38.3 13.19 38.17 13.07C36.91 11.87 35.51 10.82 34 9.94L33.63 9.73C30.48 7.99 26.85 7 23 7ZM11.49 9.07C10.01 9.93 8.62 10.96 7.37 12.11C7.15 12.32 6.94 12.52 6.73 12.73C6.51 12.41 6.37 12.08 6.3 11.76C5.75 9.44 8.61 7.44 10.64 8.42C10.95 8.57 11.24 8.78 11.49 9.07ZM34.5 9.07C36.06 9.98 37.51 11.06 38.81 12.3C38.96 12.44 39.11 12.59 39.26 12.73C39.42 12.34 39.52 11.97 39.55 11.62C39.76 9.28 37.24 7.88 35.45 8.48C35.09 8.6 34.77 8.79 34.5 9.07ZM23 31C24.1 31 25 30.1 25 29C25 28.2 24.53 27.51 23.86 27.19L22.95 27C21.86 27.02 21 27.91 21 29C21 30.1 21.89 31 23 31ZM22.36 26.06L21.01 21.13L20.97 20.98L21.02 20.84L22.52 16.34L23 14.91L23.47 16.34L24.97 20.84L25.02 20.98L24.98 21.13L23.63 26.06C23.76 26.09 23.89 26.13 24.01 26.17L31.56 12.75L32.43 13.24L24.88 26.66C25.56 27.21 26 28.05 26 29C26 30.65 24.65 32 23 32C21.34 32 20 30.65 20 29C20 27.56 21.01 26.35 22.36 26.06ZM22.02 21.01L23 24.59L23.97 21.01L23 18.08L22.02 21.01Z" fill="#7859CF" fill-opacity="1.000000" fill-rule="evenodd"/>
</svg>
